X: 509
T: Valle Kcim
O: Kosovo
F: https://www.youtube.com/watch?v=BgqI-QM1VKk
M: 4/4
L: 1/8
K: Fdor
Q: 1/4=160
%%MIDI drum d3dd2d2 35 35 35 35 100 70 80 80
%%MIDI drumon
%%MIDI program 109 Bagpipes
Z2|F3C FGAB|A3G AGF2|F3E F2F2|F3F F4|\
F3C FGAB|A3G AGF2|F4  E4  |F4  F4|
F3C FGAB|A3G AGF2|A3G F2E2|F3F F4|\
f3e edcB|A3G AGF2|F4  F4  |F4 F2z2|
|:F3F B2B2|A3A BAB2|F3F B2B2|A3A BAB2|\
 F3F A2A2|G2G2 AGA2|F4 F4|E2F2 F4:|


